!!!OTL: Fische verkaufen.
!!!ARE: Europa, Mitteleuropa, Deutschland
!!!SCT: A0506A
!!!TXL: @@GMH
!!!YEM: Copyright 1995, estate of Helmut Schaffrath.
**kern	**text
*M4/4yy	*
*clefC4	*
*k[b-]	*
*F:	*
=1	=1
{4F	Fol-
4G	-ge
2A/	Kind,
=2	=2
2c	fol-
2A}	-ge!
=3||	=3||
{2c	Ʒeck-
2A	-te,
=4	=4
4c	gro-
4B-	-te
4A/	Kuh-
4G	-le
=5	=5
2A/	Bar-
2F}	-ſe,
=6	=6
{4A	will
4B-	gy
4c	wee-
4B-	-ten,
=7	=7
4A/	wee
4G	wy
2F}	ſinn?
=8	=8
{2G	Ʒeck-
2F	-te
=9	=9
4B-	gro-
4A	-te
4G	Kuh-
4C	-le
=10	=10
2F	Bar-
2F}	-ſe.
==	==
!!!GTL: Einige Kinder-Reime
!!!AGN: Romanze, Ballade, Lied, Kinderlied
!! N. Zange, 1620 Lied 25.
!!!ONB: ESAC (Essen Associative Code) Database: ALTDEU
!!!AMT: simple quadruple
!!!AIN: vox
!!!EED: Helmut Schaffrath
!!!EEV: 1.0
!!!URL-scan: https://rosdok.uni-rostock.de/mcrviewer/recordIdentifier/rosdok_ppn738218359/iview2/phys_0686.iview2?x=-16.406782488349563&y=286.02938574226573&scale=0.6395221764153846&rotation=0&layout=singlePageLayout&logicalDiv=log_0018
!!!ENC: Anna Maria Matuszewska
!!!EEV: 2024/19/03
*-	*-
